!!!!SEGMENT: pl-kk--kk-i-146_anonim--diffusa-est-gratia.krn
!!!cenid: 17xx:2660
!!!COM: Anonim
!!!COM-rismID: pe30004985
!!!CDT:
!!!CNT:
!!!OTL: Diffusa est gratia
!!!PDT:
!!!AGN: Sacred
!!!YEC: Copyright 2022 Narodowy Instytut Fryderyka Chopina (https://polishscores.org)
!!!YEM: License CC-BY-4.0 (https://creativecommons.org/licenses/by/4.0)
!!!SMS-siglum: PL-Kk
!!!SMS-shelfmark: Kk.I.146
!!!SMS-variant:
!!!SMS-altvar:
!!!SMS-shelfwork: W
!!!NIFC-rismSourceID: 1001150591
!!!NIFC-rismChildID: 1001150591
!!!NIFC-islandoraID: pl-kk:3632
!!!URL-pdf-islandora: https://repozytorium.nifc.pl/islandora/object/pl-kk%3A3632/datastream/PDF/view
!!!URL-scan: https://polish.musicsources.pl/pl/lokalizacje/galeria/rekopisy/5773/2 @EN{Scan on Polish Music Sources Website} @PL{Skany w portalu Dziedzictwo Muzyki Polskiej w otwartym dostępie}
!!!IIIF:
!!!ONB-nifc: UWAGA: z uwzględnieniem partii B rip.
!!!AIN: 2 bass
!!!key:
**kern	**text	**kern	**text	**kern	**text	**kern	**text	**kern	**text
*part5	*part5	*part4	*part4	*part3	*part3	*part2	*part2	*part1	*part1
*staff5	*staff5	*staff4	*staff4	*staff3	*staff3	*staff2	*staff2	*staff1	*staff1
*I"Baſso eripieno	*	*I"Baſso	*	*I"Tenore	*	*I"Alto	*	*I"Canto	*
*I'B r	*	*I'B	*	*I'T	*	*I'A	*	*I'C	*
*Ibass	*	*Ibass	*	*	*	*	*	*	*
*ICvox	*	*ICvox	*	*	*	*	*	*	*
*clefF4	*	*clefF4	*	*clefC4	*	*clefC3	*	*clefC1	*
*k[]	*	*k[]	*	*k[]	*	*k[]	*	*k[]	*
*C:	*	*C:	*	*C:	*	*C:	*	*C:	*
*M2/2	*	*M2/2	*	*M2/2	*	*M2/2	*	*M2/2	*
*met(c|)	*	*met(c|)	*	*met(c|)	*	*met(c|)	*	*met(c|)	*
=1	=1	=1	=1	=1	=1	=1	=1	=1	=1
!	!	!	!	!	!	!	!	!	!
!	!	!LO:TX:a:t=allabreve	!	!	!	!	!	!	!
*2\right	*	*2\right	*	*	*	*2\right	*	*	*
2r	.	2r	.	1r	.	2r	.	1r	.
2G\	Dif-	2G\	Dif-	.	.	2g\	Dif-	.	.
=2	=2	=2	=2	=2	=2	=2	=2	=2	=2
[1c	-fu-	[1c	-fu-	2r	.	1g	-fu-	2r	.
*	*	*	*	*2\right	*	*	*	*2\right	*
.	.	.	.	2c\	Dif-	.	.	2ee\	Dif-
=3	=3	=3	=3	=3	=3	=3	=3	=3	=3
2c\]	.	2c\]	.	2f\	-fu-	1a	.	[1ff	-fu-
2d\	.	2d\	.	2d\	.	.	.	.	.
=4	=4	=4	=4	=4	=4	=4	=4	=4	=4
2B\	.	2B\	.	2d\	.	1g	.	2ff\]	.
[2c\	.	[2c\	.	4c\	.	.	.	2ee\	.
.	.	.	.	4B\	.	.	.	.	.
=5	=5	=5	=5	=5	=5	=5	=5	=5	=5
2c\]	.	2c\]	.	2A\	.	2.f\	.	2.dd\	.
2B\	-sa	2B\	-sa	2d\	-sa	.	.	.	.
.	.	.	.	.	.	4g\	-sa	4dd\	-sa
=6	=6	=6	=6	=6	=6	=6	=6	=6	=6
1c	eſt	1c	eſt	1c	est	1g	eſt	1ee	eſt
=7	=7	=7	=7	=7	=7	=7	=7	=7	=7
1c	gra-	1c	gra-	2c\	gra-	[1g	gra-	2.ee\	gra-
.	.	.	.	2e\	-ti-	.	.	.	.
.	.	.	.	.	.	.	.	4cc\	.
=8	=8	=8	=8	=8	=8	=8	=8	=8	=8
1B	.	1B	.	2B\	-a	4g\]	.	2dd\	.
.	.	.	.	.	.	4a\	.	.	.
.	.	.	.	2d\	gra-	4b\	.	2gg\	.
.	.	.	.	.	.	4g\	.	.	.
!LO:LB:g=original	!	!LO:LB:g=original	!	!LO:LB:g=original	!	!LO:LB:g=original	!	!LO:LB:g=original	!
=9	=9	=9	=9	=9	=9	=9	=9	=9	=9
2.A\	.	2.A\	.	2e\	.	2g\	.	2.cc\	.
.	.	.	.	2c\	-ti-	2f#X\	-ti-	.	.
4A\	-ti-	4A\	-ti-	.	.	.	.	(8b\L	-ti-
.	.	.	.	.	.	.	.	8cc\J)	.
=10	=10	=10	=10	=10	=10	=10	=10	=10	=10
2G\	-a	2G\	-a	2B\	-a	2g\	-a	2dd\	-a
2D\	in	2D\	in	2r	.	(4f#X\	in	2r	.
.	.	.	.	.	.	4e\)	.	.	.
=11	=11	=11	=11	=11	=11	=11	=11	=11	=11
[1G	la-	[1G	la-	2r	.	1d	la-	2r	.
.	.	.	.	2d\	in	.	.	2b\	in
=12	=12	=12	=12	=12	=12	=12	=12	=12	=12
2G\]	.	2G\]	.	2c\	la-	1e	.	[1cc	la-
2A\	-bi-	2A\	-bi-	2e\	-bi-	.	.	.	.
=13	=13	=13	=13	=13	=13	=13	=13	=13	=13
2F#X\	-js	2F#X\	-js	1d	-is	2a\	-bi-	2cc\]	.
[2G\	tu-	[2G\	tu-	.	.	[2g\	-is	4b\	-bi-
.	.	.	.	.	.	.	.	4b\	-js
=14	=14	=14	=14	=14	=14	=14	=14	=14	=14
(2G\]	.	2G\]	.	(2.c\	tu-	2g\]	.	1a	tu-
2F#X\)	.	2F#X\	.	.	.	2f#X\	tu-	.	.
.	.	.	.	4d\)	.	.	.	.	.
=15	=15	=15	=15	=15	=15	=15	=15	=15	=15
1G	-is	1G	-is	1d	-is	1g	-is	1b	-is
=16	=16	=16	=16	=16	=16	=16	=16	=16	=16
1r	.	1r	.	1d	prop-	1r	.	2g\	prop-
.	.	.	.	.	.	.	.	2b\	-te-
!LO:LB:g=original	!	!LO:LB:g=original	!	!	!	!	!	!	!
=17	=17	=17	=17	=17	=17	=17	=17	=17	=17
2C/	prop-	2C/	prop-	2.e\	-te-	1g	prop-	2.cc\	-re-
2E/	.	2E/	.	.	.	.	.	.	.
.	.	.	.	4d\	-re-	.	.	4b\	-a
!	!	!	!	!LO:LB:g=original	!	!LO:LB:g=original	!	!LO:LB:g=original	!
=18	=18	=18	=18	=18	=18	=18	=18	=18	=18
2F\	-te-	2F\	-te-	2c\	-a	2a\	-te-	4a\	be-
.	.	.	.	.	.	.	.	4cc\	-ne-
4F\	-re-	4F\	-re-	[2f\	be-	4a\	-re-	[2dd\	-di-
4E\	-a	4E\	-a	.	.	4g\	-a	.	.
=19	=19	=19	=19	=19	=19	=19	=19	=19	=19
4D\	be-	4D\	be-	2f\]	.	4f\	be-	(4dd\]	.
4F\	-ne-	4F\	-ne-	.	.	4a\	-ne-	4cc\)	.
[2G\	-di-	[2G\	-di-	2d\	-ne-	[2b\	-di-	4b\	-xit
.	.	.	.	.	.	.	.	4dd\	te
=20	=20	=20	=20	=20	=20	=20	=20	=20	=20
2G\]	.	(4G\]	.	2B\	-di-	4b\]	.	2.ee\	De-
.	.	4F\)	.	.	.	4a\	.	.	.
4E\	-xit	4E\	-xit	4c\	-xit	4g\	-xit	.	.
4G\	te	4G\	te	4B\	te	4f\	te	4dd\	-us
=21	=21	=21	=21	=21	=21	=21	=21	=21	=21
2.A\	De-	2.A\	De-	2c\	De-	2e\	De-	(4cc\	in
.	.	.	.	.	.	.	.	4ee\)	.
.	.	.	.	2c\	-us	[2a\	.	[2ff\	ae-
4G\	-us	4G\	-us	.	.	.	.	.	.
=22	=22	=22	=22	=22	=22	=22	=22	=22	=22
2F\	in	2F\	in	2c\	in	4a\]	.	4ff\]	.
.	.	.	.	.	.	4g\	-us	4ee\	.
2F\	ae-	2F\	ae-	2A\	ae-	4f\	in	4dd\	.
.	.	.	.	.	.	4e\	ae-	4cc\	.
!	!	!LO:LB:g=original	!	!	!	!	!	!	!
=23	=23	=23	=23	=23	=23	=23	=23	=23	=23
4G\	-ter-	4G\	-ter-	1G	-ter-	1d	-ter-	1b	-ter-
4F\	.	4F\	.	.	.	.	.	.	.
4E\	.	4E\	.	.	.	.	.	.	.
4D\	.	4D\	.	.	.	.	.	.	.
!LO:LB:g=original	!	!	!	!	!	!	!	!	!
=24	=24	=24	=24	=24	=24	=24	=24	=24	=24
1C	-num	1C	-num	1G	-num	1e	-num	1cc	-num
!	!	!	!	!	!	!LO:LB:g=original	!	!LO:LB:g=original	!
=25	=25	=25	=25	=25	=25	=25	=25	=25	=25
1D	in	1D	in	1d	in	[1a	in	[1ff	in
!	!	!	!	!LO:LB:g=original	!	!	!	!	!
=26	=26	=26	=26	=26	=26	=26	=26	=26	=26
1G	ae-	1G	ae-	1B	ae-	2a\]	.	2ff\]	.
.	.	.	.	.	.	(4g\	ae-	(4ee\	ae-
.	.	.	.	.	.	4f\)	.	4dd\)	.
=27	=27	=27	=27	=27	=27	=27	=27	=27	=27
1C	-ter-	1C	-ter-	1c	-ter-	1g	-ter-	4ee\	-ter-
.	.	.	.	.	.	.	.	4cc\	.
.	.	.	.	.	.	.	.	4ee\	.
.	.	.	.	.	.	.	.	4gg\	.
=28	=28	=28	=28	=28	=28	=28	=28	=28	=28
1G	-num	1G	-num	1B	-num	1g	-num	1dd	-num
=29	=29	=29	=29	=29	=29	=29	=29	=29	=29
(4E\	et	(4E\	et	1r	.	2.g\	et	2.cc\	et
4D\)	.	4D\)	.	.	.	.	.	.	.
(4E\	in	(4E\	in	.	.	.	.	.	.
4C/)	.	4C\)	.	.	.	4e\	in	4cc\	in
=30	=30	=30	=30	=30	=30	=30	=30	=30	=30
4F\	ſae-	4F\	ſae-	2.c\	et	2c\	ſae-	2.a\	ſae-
4G\	.	4G\	.	.	.	.	.	.	.
4A\	.	4A\	.	.	.	2f\	.	.	.
4F\	.	4F\	.	4A\	in	.	.	4dd\	.
!	!	!LO:LB:g=original	!	!	!	!	!	!	!
=31	=31	=31	=31	=31	=31	=31	=31	=31	=31
4G\	.	4G\	.	4d\	ſae-	2d\	.	4b\	.
4F\	.	4F\	.	4B\	.	.	.	4g\	.
4E\	.	4E\	.	2e\	.	2g\	.	[2cc\	.
4C/	.	4C/	.	.	.	.	.	.	.
!LO:LB:g=original	!	!	!	!	!	!	!	!LO:LB:g=original	!
=32	=32	=32	=32	=32	=32	=32	=32	=32	=32
4D/	.	4D/	.	4f\	.	4f\	.	4cc\]	.
4C/	.	4C/	.	4c\	.	4e\	.	4ee\	.
4BB/	.	4BB/	.	4d\	.	4d\	.	2ff\	.
4AA/	.	4AA/	.	4c\	.	4f\	.	.	.
!	!	!	!	!	!	!LO:LB:g=original	!	!	!
=33	=33	=33	=33	=33	=33	=33	=33	=33	=33
4GG/	.	4GG/	.	4B\	.	(4g\	.	4ff\	.
4BB/	.	4BB/	.	4d\	.	4g\)	.	4dd\	-cu-
4C/	-cu-	4C/	-cu-	4c\	-cu-	4g\	-cu-	4ee\	-lum
4F\	-lum	4F\	-lum	4d\	-lum	4a\	-lum	(8dd\L	.
.	.	.	.	.	.	.	.	8cc\J)	.
!	!	!	!	!LO:LB:g=original	!	!	!	!	!
=34	=34	=34	=34	=34	=34	=34	=34	=34	=34
2G\	ſae-	2G\	ſae-	2.d\	ſae-	2.g\	ſae-	2cc\	ſae-
2GG/	-cu-	2GG/	-cu-	.	.	.	.	2b\	-cu-
.	.	.	.	4d\	-cu-	4g\	-cu-	.	.
=35	=35	=35	=35	=35	=35	=35	=35	=35	=35
1C	-li	1C	-li	1e	-li	1g	-li	1cc	-li
=36	=36	=36	=36	=36	=36	=36	=36	=36	=36
!LO:TX:a:t=Verte	!	!	!	!	!	!LO:TX:a:t=Verte	!	!	!
1r	.	1r	.	1d	prop-	1r	.	2g\	prop-
.	.	.	.	.	.	.	.	2b\	-te-
!LO:PB:g=original	!	!	!	!	!	!LO:PB:g=original	!	!	!
=37	=37	=37	=37	=37	=37	=37	=37	=37	=37
2C/	prop-	2C/	prop-	2.e\	-te-	1g	prop-	2.cc\	-re-
2E/	.	2E\	.	.	.	.	.	.	.
.	.	.	.	4d\	-re-	.	.	4b\	-a
!	!	!LO:PB:g=original	!	!	!	!	!	!	!
=38	=38	=38	=38	=38	=38	=38	=38	=38	=38
2F\	-te-	2F\	-te-	2c\	-a	2a\	-te-	4a\	be-
.	.	.	.	.	.	.	.	4cc\	-ne-
4F\	-re-	4F\	-re-	[2f\	be-	4a\	-re-	[2dd\	-di-
4E\	-a	4E\	-a	.	.	4g\	-a	.	.
!	!	!	!	!	!	!	!	!LO:PB:g=original	!
=39	=39	=39	=39	=39	=39	=39	=39	=39	=39
4D\	be-	4D\	be-	2f\]	.	4f\	be-	(4dd\]	.
4F\	-ne-	4F\	-ne-	.	.	4a\	-ne-	4cc\)	.
[2G\	-di-	[2G\	-di-	2d\	-ne-	[2b\	-di-	4b\	-xit
.	.	.	.	.	.	.	.	4ee\	te
=40	=40	=40	=40	=40	=40	=40	=40	=40	=40
(4G\]	.	(4G\]	.	2B\	-di-	4b\]	.	2.ee\	De-
4F\)	.	4F\)	.	.	.	4a\	.	.	.
4E\	-xit	4E\	-xit	4c\	-xit	4g\	-xit	.	.
4G\	te	4G\	te	4B\	te	4f\	te	4dd\	-us
=41	=41	=41	=41	=41	=41	=41	=41	=41	=41
2.A\	De-	2.A\	De-	2c\	De-	2e\	De-	(4cc\	in
.	.	.	.	.	.	.	.	4ee\)	.
.	.	.	.	2c\	-us	[2a\	.	[2ff\	ae-
4G\	-us	4G\	-us	.	.	.	.	.	.
!	!	!	!	!LO:PB:g=original	!	!	!	!	!
=42	=42	=42	=42	=42	=42	=42	=42	=42	=42
2F\	in	2F\	in	2c\	in	4a\]	.	4ff\]	.
.	.	.	.	.	.	4g\	-us	4ee\	.
2F\	ae-	2F\	ae-	2A\	ae-	4f\	in	4dd\	.
.	.	.	.	.	.	4e\	ae-	4cc\	.
=43	=43	=43	=43	=43	=43	=43	=43	=43	=43
4G\	-ter-	4G\	-ter-	1G	-ter-	1d	-ter-	1b	-ter-
4F\	.	4F\	.	.	.	.	.	.	.
4E\	.	4E\	.	.	.	.	.	.	.
4D\	.	4D\	.	.	.	.	.	.	.
!LO:LB:g=original	!	!LO:LB:g=original	!	!	!	!LO:LB:g=original	!	!	!
=44	=44	=44	=44	=44	=44	=44	=44	=44	=44
1C	-num	1C	-num	1G	-num	1e	-num	1cc	-num
=45	=45	=45	=45	=45	=45	=45	=45	=45	=45
1D	in	1D	in	1d	in	[1a	in	[1ff	in
=46	=46	=46	=46	=46	=46	=46	=46	=46	=46
1G	ae-	1G	ae-	1B	ae-	2a\]	.	2ff\]	.
.	.	.	.	.	.	(4g\	ae-	(4ee\	ae-
.	.	.	.	.	.	4f\)	.	4dd\)	.
!	!	!	!	!	!	!	!	!LO:LB:g=original	!
=47	=47	=47	=47	=47	=47	=47	=47	=47	=47
1C	-ter-	1C	-ter-	1c	-ter-	1g	-ter-	4ee\	-ter-
.	.	.	.	.	.	.	.	4cc\	.
.	.	.	.	.	.	.	.	4ee\	.
.	.	.	.	.	.	.	.	4gg\	.
=48	=48	=48	=48	=48	=48	=48	=48	=48	=48
1G	-num	1G	-num	1B	-num	1g	-num	1dd	-num
=49	=49	=49	=49	=49	=49	=49	=49	=49	=49
(4E\	et	(4E\	et	1r	.	2.g\	et	2.cc\	et
4D\)	.	4D\)	.	.	.	.	.	.	.
(4E\	in	(4E\	in	.	.	.	.	.	.
4C\)	.	4C\)	.	.	.	4e\	in	4cc\	in
=50	=50	=50	=50	=50	=50	=50	=50	=50	=50
4F\	ſae-	4F\	ſae-	2.c\	et	2c\	ſae-	2.a\	ſae-
4G\	.	4G\	.	.	.	.	.	.	.
4A\	.	4A\	.	.	.	2f\	.	.	.
4F\	.	4F\	.	4A\	in	.	.	4dd\	.
=51	=51	=51	=51	=51	=51	=51	=51	=51	=51
4G\	.	4G\	.	4d\	ſae-	2d\	.	4b\	.
4F\	.	4F\	.	4B\	.	.	.	4g\	.
4E\	.	4E\	.	2e\	.	2g\	.	[2cc\	.
4C\	.	4C\	.	.	.	.	.	.	.
!	!	!	!	!LO:LB:g=original	!	!	!	!	!
=52	=52	=52	=52	=52	=52	=52	=52	=52	=52
4D/	.	4D/	.	4f\	.	4f\	.	4cc\]	.
4C/	.	4C/	.	4c\	.	4e\	.	4ee\	.
4BB/	.	4BB/	.	4d\	.	4d\	.	[2ff\	.
4AA/	.	4AA/	.	4c\	.	4f\	.	.	.
!LO:LB:g=original	!	!	!	!	!	!LO:LB:g=original	!	!	!
=53	=53	=53	=53	=53	=53	=53	=53	=53	=53
4GG/	.	4GG/	.	4B\	.	2g\	.	4ff\]	.
4BB/	.	4BB/	.	4d\	.	.	.	4dd\	.
4C/	-cu-	4C/	-cu-	4c\	-cu-	4g\	-cu-	4ee\	-cu-
4F\	-lum	4F\	-lum	4d\	-lum	4a\	-lum	(8dd\L	-lum
.	.	.	.	.	.	.	.	8cc\J)	.
!	!	!	!	!	!	!	!	!LO:LB:g=original	!
=54	=54	=54	=54	=54	=54	=54	=54	=54	=54
2G\	ſae-	2G\	ſae-	2.d\	ſae-	2.g\	ſae-	2cc\	ſae-
2GG/	-cu-	2GG/	-cu-	.	.	.	.	2b\	-cu-
.	.	.	.	4d\	-cu-	4g\	-cu-	.	.
=55	=55	=55	=55	=55	=55	=55	=55	=55	=55
0C	-li	0C;	-li	0e	-li	0g	-li	0cc	-li
==	==	==	==	==	==	==	==	==	==
*-	*-	*-	*-	*-	*-	*-	*-	*-	*-
!!!system-decoration: [(s1,s2,s3,s4,s5)]
!!!ENC: Andrzej Gręziak
!!!END: 2024-06-07
!!!ENC: Leszek Kubiak
!!!END: 2024-06-13
